images/ico-bicro-important.svg

<svg xmlns="http://www.w3.org/2000/svg" width="85" height="80" fill="none" viewBox="0 0 85 80"><path fill="#cfbff5" d="M34.5879 10.1541L41.1937 28.0058L59.0455 34.6116L41.1937 41.2174L34.5879 59.0691L27.9822 41.2174L10.1304 34.6116L27.9822 28.0058L34.5879 10.1541Z"/><path fill="#6c38d9" d="M17.2941 17.2942L34.5882 25.2463L51.8823 17.2942L43.9301 34.5883L51.8823 51.8824L34.5882 43.9302L17.2941 51.8824L25.2462 34.5883L17.2941 17.2942Z"/><g opacity="0.8"><path fill="#cfbff5" d="M56.9992 52.8734L64.074 56.1265L71.1489 52.8734L67.8957 59.9482L71.1489 67.0231L64.074 63.7699L56.9992 67.0231L60.2523 59.9482L56.9992 52.8734Z"/><path fill="#6c38d9" d="M54.1099 59.9893L61.4129 57.2869L64.1152 49.9839L66.8176 57.2869L74.1206 59.9893L66.8176 62.6916L64.1152 69.9946L61.4129 62.6916L54.1099 59.9893Z"/></g></svg>

<svg xmlns="http://www.w3.org/2000/svg" width="85" height="80" fill="none" viewBox="0 0 85 80"><path fill="#CFBFF5" d="m34.588 10.154 6.606 17.852 17.851 6.606-17.851 6.605-6.606 17.852-6.606-17.852-17.852-6.605 17.852-6.606z"/><path fill="#6C38D9" d="m17.294 17.294 17.294 7.952 17.294-7.952-7.952 17.294 7.952 17.294-17.294-7.952-17.294 7.952 7.952-17.294z"/><g opacity="0.8"><path fill="#CFBFF5" d="m57 52.873 7.074 3.254 7.075-3.254-3.253 7.075 3.253 7.075-7.075-3.253-7.075 3.253 3.253-7.075z"/><path fill="#6C38D9" d="m54.11 59.99 7.303-2.703 2.702-7.303 2.703 7.303 7.303 2.702-7.303 2.703-2.703 7.303-2.702-7.303z"/></g></svg>
